!!!CDT:
!!!PTL: Il decimoquinto libro de' madrigali à cinque voci
!!!PPP: Palermo
!!!PPR: Giovan Battista Maringo
!!!PDT: 1619
!!!RISM: I 15
!!!rime:
!!!AGN: Madrigal
!!!SCT: Tsg12066b
!!!SCA: Tsg12066b
!!!voices:
!!!COM: Il Verso, Antonio
!!!OTL: "Amico hai vinto; io ti perdon, perdona
**kern	**text	**kern	**text	**kern	**text	**kern	**text	**kern	**text
*part5	*part5	*part4	*part4	*part3	*part3	*part2	*part2	*part1	*part1
*staff5	*staff5	*staff4	*staff4	*staff3	*staff3	*staff2	*staff2	*staff1	*staff1
*I"Basso	*	*I"Quinto	*	*I"Tenore	*	*I"Alto	*	*I"Canto	*
*I'B	*	*I'V	*	*I'T	*	*I'A	*	*I'C	*
*oclefF4	*	*oclefC4	*	*oclefC4	*	*oclefC3	*	*oclefC1	*
*clefF4	*	*clefGv2	*	*clefGv2	*	*clefG2	*	*clefG2	*
*k[b-]	*	*k[b-]	*	*k[b-]	*	*k[b-]	*	*k[b-]	*
*F:	*	*F:	*	*F:	*	*F:	*	*F:	*
*omet(C)	*	*omet(C)	*	*omet(C)	*	*omet(C)	*	*omet(C)	*
*M4/2	*	*M4/2	*	*M4/2	*	*M4/2	*	*M4/2	*
=1	=1	=1	=1	=1	=1	=1	=1	=1	=1
!	!	!	!	!	!	!	!	!LO:TX:a:t=Prima stanza.	!
2.G	"A-	2.d	"A-	4r	.	2.g	"A-	2.b-y	"A-
.	.	.	.	2B-y	"A-	.	.	.	.
8E-X	-mi-	8e-X	-mi-	8G	-mi-	8g	-mi-	8b-y	-mi-
8E-X	-co hai	8c	-co hai	8G	-co hai	8g	-co hai	8cc	-co hai
2D	vin-	2d	vin-	2A	vin-	2f#X	vin-	2a	vin-
2D	-to,	2d	-to,	2A	-to;	2f#X	-to,	2a	-to,
=2	=2	=2	=2	=2	=2	=2	=2	=2	=2
4r	.	4r	.	0r	.	4r	.	4r	.
4G	A-	4d	A-	.	.	4g	A-	4bnX	A-
4C	-mi-	4c	-mi-	.	.	4g	-mi-	4cc	-mi-
4E-X	-co hai	4B-y	-co hai	.	.	4g	-co hai	4g	-co hai
4.D	vin-	4.d	vin-	.	.	4.fnXi	vin-	4.a	vin-
8D	-to; io	8d	-to; io	.	.	8f	-to; io	8dd	-to; io
4D	ti	4d	ti	.	.	4f	ti	4a	ti
4G	per-	4d	per-	.	.	4g	per-	4b-i	per-
=3	=3	=3	=3	=3	=3	=3	=3	=3	=3
4F#X	-don,	4A	-don,	1r	.	4a	-don,	4.dd	-don,
4F#X	per-	4d	per-	.	.	4a	per-	.	.
.	.	.	.	.	.	.	.	8cc	per-
4G	-do-	4d	-do-	.	.	4g	-do-	4bnX	-do-
8G	-na	8d	-na	.	.	8g	-na	8bni	-na
8C	Tu an-	8e-X	Tu an-	.	.	8g	Tu an-	8cc	Tu an-
8D	-cor,	8d	-cor,	2r	.	8f	-cor,	8a	-cor,
8BB-y	al	8d	al	.	.	8f	al	8b-i	al
8FnXi	cor-	8c	cor-	.	.	8f	cor-	8a	cor-
8C	-po	8c	-po	.	.	8e-X	-po	8g	-po
2G	no,	2B-y	no,	8r	.	8d	no,	2g	no
.	.	.	.	8d	che	8g	che	.	.
.	.	.	.	8d	nul-	8f	nul-	.	.
.	.	.	.	8c	-la	8enXi	-la	.	.
=4	=4	=4	=4	=4	=4	=4	=4	=4	=4
0r	.	1r	.	8B-yL	pa-	8dL	pa-	8r	.
.	.	.	.	8A	.	16e	.	8cc	che
.	.	.	.	.	.	16f	.	.	.
.	.	.	.	8G	.	8g	.	8b-y	nul-
.	.	.	.	8AJ	.	16f	.	8a	-la
.	.	.	.	.	.	16eJ	.	.	.
.	.	.	.	2B-y	.	8dL	.	8gL	pa-
.	.	.	.	.	.	8GJ	.	16f	.
.	.	.	.	.	.	.	.	16e	.
.	.	.	.	.	.	4.d	.	16d	.
.	.	.	.	.	.	.	.	16e	.
.	.	.	.	.	.	.	.	16f	.
.	.	.	.	.	.	.	.	16dJ	.
.	.	4r	.	1A	-ve,	.	.	2e	.
.	.	.	.	.	.	16c#XL	.	.	.
.	.	.	.	.	.	16BnXJ	.	.	.
.	.	4A	A	.	.	4c#X	.	.	.
.	.	8DL	l'al-	.	.	2d	-ve,	2d	-ve,
.	.	8EnXi	.	.	.	.	.	.	.
.	.	8F	.	.	.	.	.	.	.
.	.	8GJ	.	.	.	.	.	.	.
=5	=5	=5	=5	=5	=5	=5	=5	=5	=5
2D	A	4A	.	2r	.	2f	A	4d	A
.	.	4B-y	-ma	.	.	.	.	8dL	l'al-
.	.	.	.	.	.	.	.	8eJ	.
8DL	l'al-	2F	sì,	4r	.	4f	l'al-	8fL	.
8E	.	.	.	.	.	.	.	8gJ	.
8F	.	.	.	4A	A	4f	-ma	2a	.
8GJ	.	.	.	.	.	.	.	.	.
2A	.	2r	.	8AL	l'al-	2.e	sì:	.	.
.	.	.	.	8B-y	.	.	.	.	.
.	.	.	.	8c	.	.	.	4a	-ma
.	.	.	.	8dJ	.	.	.	.	.
2AA	-ma	4r	.	4e	.	.	.	2a	sì,
.	.	4A	A	4f	-ma	4cnXi	deh	.	.
=6	=6	=6	=6	=6	=6	=6	=6	=6	=6
1AA	sì:	8AL	l'al-	2c	sì,	4e	per	4r	.
.	.	8B-y	.	.	.	.	.	.	.
.	.	8c	.	.	.	4e	lei	4a	A
.	.	8dJ	.	.	.	.	.	.	.
.	.	4.e	.	2A	sì:	4c	pre-	8aL	l'al-
.	.	.	.	.	.	.	.	8b-y	.
.	.	.	.	.	.	4a	-ga, e	8cc	.
.	.	8f	-ma	.	.	.	.	8ddJ	.
1r	.	4c	sì:	1r	.	4g	do-	4ee	.
.	.	4F	deh	.	.	4f	-na,	4ff	-ma
.	.	2A	per	.	.	4r	.	[2cc	sì:
.	.	.	.	.	.	[4a	per	.	.
=7	=7	=7	=7	=7	=7	=7	=7	=7	=7
1r	.	2F	lei	1r	.	4a]	.	4cc]	.
.	.	.	.	.	.	4a	lei	2dd	deh
.	.	2E-X	pre-	.	.	1g	pre-	.	.
.	.	.	.	.	.	.	.	8g	per
.	.	.	.	.	.	.	.	8g	lei
4r	.	2D	-ga,	4r	.	.	.	2b-y	pre-
2D	pre-	.	.	2d	pre-	.	.	.	.
.	.	4r	.	.	.	2f#X	-ga, e	2a	-ga, e
4D	-ga, e	[4d	e	4A	-ga e	.	.	.	.
=8	=8	=8	=8	=8	=8	=8	=8	=8	=8
1GG	do-	4d]	.	8GL	do-	8gL	do-	8b-yL	do-
.	.	.	.	8A	.	8a	.	8a	.
.	.	4.G	do-	8B-y	.	8b-y	.	8g	.
.	.	.	.	8cJ	.	8aJ	.	8aJ	.
.	.	.	.	2d	.	2g	.	8b-yL	.
.	.	8FL	.	.	.	.	.	8a	.
.	.	8G	.	.	.	.	.	8b-y	.
.	.	8B-yJ	.	.	.	.	.	8gJ	.
1D	-na	1A	-na	1d	-na	1f#X	-na	2a	.
.	.	.	.	.	.	.	.	2a	-na
=9	=9	=9	=9	=9	=9	=9	=9	=9	=9
2G	Bat-	2B-y	Bat-	2r	.	4r	.	4r	.
.	.	.	.	.	.	2g	Bat-	2dd	Bat-
8G	-te-	8B-y	-te-	2B-y	Bat-	.	.	.	.
8G	-smo a	8B-y	-smo a	.	.	.	.	.	.
2B-y	me,	2d	me,	.	.	8fnXi	-te-	8dd	-te-
.	.	.	.	.	.	8f	-smo a	8dd	-smo a
.	.	.	.	8B-y	-te-	1f	me,	2dd	me,
.	.	.	.	8B-y	-smo a	.	.	.	.
4.BB-y	ch'o-	4B-y	ch'o-	2d	me,	.	.	.	.
.	.	4B-y	-gni	.	.	.	.	4r	.
8C	-gni	.	.	.	.	.	.	.	.
4D	mia	4f	mia	4F	ch'o-	.	.	[4a	ch'o-
=10	=10	=10	=10	=10	=10	=10	=10	=10	=10
2E-X	col-	2e-X	col-	4G	-gni	0r	.	4a]	.
.	.	.	.	4G	mia	.	.	8g	-gni
.	.	.	.	.	.	.	.	8g	mia
2C	-pa	2e-X	-pa	2.c	col-	.	.	4g	col-
.	.	.	.	.	.	.	.	2a	-pa
1D	la-	1d	la-	.	.	.	.	.	.
.	.	.	.	4B-y	-la	.	.	2g	la-
.	.	.	.	2A	la-	.	.	.	.
.	.	.	.	.	.	.	.	4f#X	.
=11	=11	=11	=11	=11	=11	=11	=11	=11	=11
2GG	-ve."	2d	-ve."	1G	-ve."	2r	.	2g	-ve."
4r	.	4r	.	.	.	4r	.	4r	.
4G	In	4B-y	In	.	.	4g	In	4b-y	In
4G	que-	4B-y	que-	1r	.	4g	que-	4b-y	que-
4G	-ste	4B-y	-ste	.	.	4g	-ste	4dd	-ste
2B-y	vo-	2d	vo-	.	.	2f	vo-	2dd	vo-
=12	=12	=12	=12	=12	=12	=12	=12	=12	=12
4B-y	-ci	4B-y	-ci	0r	.	4d	-ci	4dd	-ci
4.D	lan-	4.A	lan-	.	.	2d	lan-	4.f#X	lan-
8D	-gui-	8A	-gui-	.	.	.	.	8f#X	-gui-
2D	-de	2A	-de	.	.	4d	-gui-	4f#X	-de
.	.	.	.	.	.	4d	-de	4r	.
4BB-y	ri-	4B-y	ri-	.	.	4d	ri-	4d	ri-
2C	-suo-	2G	-suo-	.	.	2e-X	-suo-	4d	-suo-
.	.	.	.	.	.	.	.	4c	.
=13	=13	=13	=13	=13	=13	=13	=13	=13	=13
2GG	-na	2G	-na	4r	.	4d	-na	2d	-na
.	.	.	.	2G	Un	2B-y	Un	.	.
2r	.	2r	.	.	.	.	.	4r	.
.	.	.	.	8A	non	8c	non	2fnXi	Un
.	.	.	.	8A	so	8c	so	.	.
1r	.	2r	.	2.B-y	che	2.d	che	.	.
.	.	.	.	.	.	.	.	8g	non
.	.	.	.	.	.	.	.	8g	so
.	.	4r	.	.	.	.	.	2g	che
.	.	4c	Un	[4c	di	[4enXi	di	.	.
=14	=14	=14	=14	=14	=14	=14	=14	=14	=14
1r	.	8c	non	4c]	.	4e]	.	4a	di
.	.	8c	so	.	.	.	.	.	.
.	.	8d	che	4.G	fle-	4.g	fle-	4.b-y	fle-
.	.	8d	di	.	.	.	.	.	.
.	.	8G	fle-	.	.	.	.	.	.
.	.	8G	-bi-	8E-X	-bi-	8g	-bi-	8b-y	-bi-
.	.	8G	-le e	8E-X	-le e	8G	-le e	8B-y	-le e
.	.	8G	so-	8E-X	so-	8G	so-	8B-y	so-
2r	.	2.G	-a-	2D	-a-	2B-y	-a-	2d	-a-
4r	.	.	.	2D	-ve	4A	-ve,	2d	-ve
4D	Ch'al	4F#X	-ve	.	.	4d	Ch'al	.	.
=15	=15	=15	=15	=15	=15	=15	=15	=15	=15
4G	cor	4r	.	0r	.	4d	cor	4r	.
4F	gli	4c	Ch'al	.	.	4f	gli	4a	Ch'al
4B-y	ser-	4d	cor	.	.	4f	ser-	4.b-y	cor
4BB-y	-pe, ed	4fnXi	gli	.	.	4d	-pe, ed	.	.
.	.	.	.	.	.	.	.	8cc	gli
4.BB-y	o-	2d	ser-	.	.	4f	o-	4dd	ser-
.	.	.	.	.	.	4f	-gni	4dd	-pe, ed
8C	-gni	.	.	.	.	.	.	.	.
4.D	sde-	2d	-pe, ed	.	.	4f	sde-	4dd	o-
.	.	.	.	.	.	4f	-gno am-	4a	-gni
8E	-gno am-	.	.	.	.	.	.	.	.
=16	=16	=16	=16	=16	=16	=16	=16	=16	=16
2F	-mor-	4c	o-	4r	.	4f	-mor-	8aL	sde-
.	.	.	.	.	.	.	.	8b-yJ	.
.	.	4A	-gni	4c	ed	4f	-za,	2cc	.
2F	-za,	4c	sde-	4.A	o-	8r	.	.	.
.	.	.	.	.	.	8f	ed	.	.
.	.	4c	-gno am-	.	.	8f	o-	4cc	-gno am-
.	.	.	.	8B-y	-gni	8f	-gni	.	.
1r	.	4.F	-mor-	4c	sde-	4f	sde-	2a	-mor-
.	.	.	.	2d	.	4f	-gno am-	.	.
.	.	8G	.	.	.	.	.	.	.
.	.	2A	.	.	.	2e	-mor-	2a	-za,
.	.	.	.	4c#X	-gno am-	.	.	.	.
=17	=17	=17	=17	=17	=17	=17	=17	=17	=17
2r	.	1D	-za,	2d	-mor-	2f#X	-za,	2a	E
4r	.	.	.	2d	-za,	2f#X	E	[2a	gli oc-
4D	E	.	.	.	.	.	.	.	.
[2D	gli oc-	2r	.	2r	.	[2f#X	gli oc-	8a]	.
.	.	.	.	.	.	.	.	8b-y	-chi a
.	.	.	.	.	.	.	.	8b-y	la-
.	.	.	.	.	.	.	.	8b-y	-gri-
8D]	.	4r	.	4r	.	8f#X]	.	2b-y	-mar,
8E-X	-chi a	.	.	.	.	8g	-chi a	.	.
8E-X	la-	4B-y	E	[4e-X	E	8g	la-	.	.
8E-X	-gri-	.	.	.	.	8g	-gri-	.	.
=18	=18	=18	=18	=18	=18	=18	=18	=18	=18
2E-X	-mar,	[2B-y	gli oc-	4e-]	.	1g	-mar,	2r	.
.	.	.	.	4.e-X	gli oc-	.	.	.	.
4r	.	8B-]	.	.	.	.	.	4r	.
.	.	8c	-chi a	8e-X	-chi a	.	.	.	.
4C	E	8c	la-	8e-X	la-	.	.	4cc	E
.	.	8c	-gri-	8e-X	-gri-	.	.	.	.
[2C	gli oc-	2.c	-mar	4.e-X	-mar,	4r	.	[2ee-X	gli oc-
.	.	.	.	.	.	4g	E	.	.
.	.	.	.	8d	.	.	.	.	.
8C]	.	.	.	2c	.	4.g	gli oc-	8ee-]	.
8C	-chi a	.	.	.	.	.	.	8ee-X	-chi a
8C	la-	4G	gli in-	.	.	.	.	8ee-X	la-
8C	-gri-	.	.	.	.	8g	-chi a	8ee-X	-gri-
=19	=19	=19	=19	=19	=19	=19	=19	=19	=19
1D	-mar	[2d	-vo-	4r	.	4f#X	la-	2a	-mar
.	.	.	.	4d	E	2g	-gri-	.	.
.	.	2.d]	.	4B-y	gli oc-	.	.	1dd	gli in-
.	.	.	.	4A	-chi a	[4f#X	-mar	.	.
4r	.	.	.	2.d	la-	2f#X]	.	.	.
4D	gli in-	4D	-glia, e	.	.	.	.	.	.
4.BB-y	-vo-	2d	sfor-	.	.	2r	.	4.dd	-vo-
.	.	.	.	4D	-gri-	.	.	.	.
8AA	-glia e	.	.	.	.	.	.	8cc	-glia e
=20	=20	=20	=20	=20	=20	=20	=20	=20	=20
0D	sfor-	1d	-za,	8D	-mar	8r	.	4a	sfor-
.	.	.	.	8B-y	gli in-	8d	gli in-	.	.
.	.	.	.	8G	-vo-	8B-y	-vo-	4dd	-za,
.	.	.	.	8F	-glia e	8A	-glia, e	.	.
.	.	.	.	4A	sfor-	4.d	sfor-	8r	.
.	.	.	.	.	.	.	.	8dd	gli in-
.	.	.	.	4D	-za,	.	.	8b-y	-vo-
.	.	.	.	.	.	8e	.	8a	-glia e
.	.	8r	.	8r	.	4f#X	.	1dd	sfor-
.	.	8d	gli in-	8B-y	gli in-	.	.	.	.
.	.	8B-y	-vo-	8d	-vo-	2g	.	.	.
.	.	8A	-glia e	8d	-glia e	.	.	.	.
.	.	2d	sfor-	2A	sfor-	.	.	.	.
.	.	.	.	.	.	4f#X	.	.	.
=21	=21	=21	=21	=21	=21	=21	=21	=21	=21
0GGl	-za.	0dl	-za.	0Gl	-za.	0gl	-za.	0bnXl	-za.
==	==	==	==	==	==	==	==	==	==
*-	*-	*-	*-	*-	*-	*-	*-	*-	*-
!!!system-decoration: [*]
!!!RDF**kern: i = editorial accidental
!!!RDF**kern: l = terminal long
!!!ENC: Emiliano Ricciardi
!!!END:
!!!EED: Ricciardi, Emiliano
!!!EEV: 2020/07/23
!!!YEC: Copyright 2018 Emiliano Ricciardi, All Rights Reserved
!!!ONB: Translated from MusicXML on 2020/07/23
!!@@BEGIN:	VERSEDATA
!!@CATALOGNUM:	Tsg12066
!!@LAST_MODIFIED: 2020/07/18
!!@TITLE:		Amico hai vinto; io ti perdon, perdona
!!@CANTO:		XII
!!@OTTAVA:	66
!!@MANUSRC:	G-Al, G-Am, G-Au, G-Br<sub>1</sub>, G-Br<sub>2</sub>, G-Cv, G-Es<sub>1</sub>, G-Es<sub>2</sub>, G-Es<sub>3</sub>, G-F, G-Fr, G-Fr<sub>1</sub>, G-Fr<sub>2</sub>, G-Mc, G-Mc<sub>1</sub>, G-Mg, G-Mr, G-Mt, G-N, G-Ol
!!@PRINTSRC:	G-1580CM, G-1581B, G-1581CV, G-1581R, G-1581MR, G-1581P, G-1581V, G-1581V<sub>bis</sub>, G-1582C, G-1582M, G-1582MC, G-1582P, G-1582SC, G-1582SC<sub>bis</sub>, G-1583S, G-1584O, G-1584S, G-1585C, G-1585S, G-1588S, G-1589S, G-1590B, G-1590S, G-1592S, G-1593S, G-1594C, G-1595C, G-1597C, G-1598C, G-1599C, G-1600C, G-1600S, G-1601C, G-1601R, G-1602C, G-1604C, G-1604Cl, G-1604F, G-1604P, G-1606B, G-1606B<sub>bis</sub>, G-1606L, G-1607ZR, G-1608DP, G-1609GC, G-1610M, G-1611S, G-1611V, G-1612P, G-1613M, G-1613P, G-1613V, G-1615P, G-1616M, G-1617P, G-1619B, G-1619V, G-1620M, G-1620S, G-1621R, G-1624I, G-1624MT, G-1625C, G-1625S, G-1625SS, G-1626C, G-1626Co, G-1627M, G-1628T, G-1628Tu, G-1630L, G-1630T, G-1632FT, G-1639CF, G-1642M, G-1643I, G-1644P, G-1644S
!!@@BEGIN:	VERSES
!!@ABOUTIT:
!!@ABOUTEN:
!!@EDITOR:	Angelo Solerti
!!@EDITION_TITLE: Gerusalemme liberata. Poema eroico di Torquato Tasso. Edizione critica sui manoscritti e le prime stampe.
!!@EDITION_LOC:	Florence
!!@EDITION_PUB:	G. Barbera
!!@EDITION_DATE:  1895
!!@EDITION_VOL:
!!@EDITION_PAGE:
!!@TRANSLATOR:	Emiliano Ricciardi and Amyrose McCue Gill
!!@VERSE:
!!	"Amico hai vinto; io ti perdon, perdona
!!	Tu ancora, al corpo no che nulla pave,
!!	All’alma sì: deh per lei prega, e dona
!!	Battesmo a me, ch’ogni mia colpa lave."
!!	In queste voci languide risuona
!!	Un non so che di flebile e soave
!!	Ch’al cor gli scende, ed ogni sdegno ammorza,
!!	E gli occhi a lagrimar gli invoglia e sforza.
!!@MVERSE_DATE: 20230824
!!@MVERSE:
!!	“A|mi||co_hai vin||to;_io ti per|don||, per|do||na		=a*
!!	Tu_an|co||ra,_al cor||po no che nul||la pa||ve,			=b
!!	All’al||ma sì: deh per lei pre||ga,_e do||na			=a*
!!	Bat|te||smo_a me, ch’o||gni mia col||pa la||ve.”		=b
!!	In que||ste vo||ci lan|gui||de ri|suo||na			=a*
!!	Un non so che di fle||bi|le_e so|a||ve				=b*
!!	Ch’al cor gli scen||de,_ed o||gni sde||gno_am|mor||za,		=c
!!	E gli_oc||chi_a la|gri|mar|| gli_in|vo||glia_e sfor||za.	=c
!!@TVERSE:
!!	"My friend, you have won; I pardon you: may you pardon
!!	Too, my body no, since it fears naught,
!!	My soul, yes: indeed, may you pray for her, and give
!!	Me baptism, that my every fault wash away."
!!	In these weakened tones resounds
!!	Something, I know not what, that soft and sweet
!!	Sinks into his heart, and every scorn extinguishes,
!!	And his eyes tempt and require him to weep.
!!@@END:		VERSES
!!@OTHER_CRIT_ED:  Torquato Tasso, <i>Gerusalemme liberata</i>, ed. Lanfranco Caretti, 2 vols. (Bari: Laterza, 1967).
!!@ATTRIBUTION_ABOUT:
!!@DATING:	mid-1560s through 1570s
!!@DEDICATEE:	Duke Alfonso II d'Este
!!@COMMENTARY:
!!@@END:		VERSEDATA
!!@@BEGIN: SETTING
!!@CATALOGNUM:	Tsg12066b
!!@CANTO:		XII
!!@OTTAVA:	66
!!@TITLE:	"Amico hai vinto; io ti perdon, perdona
!!@COMPOSER:	Il Verso, Antonio
!!@PARTS:		1 of 4
!!@PRINCEPSTITLE:	Il decimoquinto libro de' madrigali à cinque voci
!!@PRINCEPSLOC:	Palermo
!!@NORMLOC:	Palermo
!!@NORMPUB:	Giovan Battista Maringo
!!@NORMPUBSHORT:	Maringo
!!@PRINCEPSPUB:	Giovan Battista Maringo
!!@PRINCEPSYEAR:	1619
!!@PRINCEPSRISM:	I 15
!!@OVOICES:	5
!!@EXTANTVOICES:	5
!!@OMENSURATION:	C
!!@OCLEFS:	C1,C3,C4,C4,F4
!!@OTIME:		
!!@OKEYSIG:	b-
!!@FINAL:		(G)G
!!@TIMPEDITOR:	Ricciardi, Emiliano
!!@REPRINTS:	
!!@@END: SETTING
